public/img/social/twitter.svg

<svg width="38" height="40" viewBox="0 0 38 40" fill="none" xmlns="http://www.w3.org/2000/svg">
<g clip-path="url(#clip0_29_1816)">
<path d="M30.013 13.0981C29.1934 13.4517 28.3014 13.7062 27.3826 13.8053C28.3365 13.2386 29.0508 12.3433 29.3916 11.2874C28.4965 11.8199 27.5159 12.1933 26.4934 12.391C26.066 11.9341 25.5491 11.5701 24.9749 11.3217C24.4007 11.0733 23.7815 10.9459 23.1559 10.9472C20.6246 10.9472 18.5889 12.999 18.5889 15.5169C18.5889 15.8705 18.6318 16.224 18.7014 16.5642C14.9112 16.366 11.5309 14.5553 9.28354 11.783C8.87405 12.4824 8.65947 13.2787 8.66211 14.0892C8.66211 15.6749 9.46836 17.0731 10.6978 17.8955C9.97328 17.8669 9.26571 17.6678 8.63265 17.3142V17.3705C8.63265 19.591 10.2023 21.4312 12.2943 21.8544C11.9015 21.9564 11.4974 22.0086 11.0916 22.0097C10.7943 22.0097 10.513 21.9803 10.2291 21.9401C10.8076 23.7508 12.4925 25.066 14.4987 25.1089C12.9291 26.3383 10.963 27.0615 8.82818 27.0615C8.44515 27.0615 8.09157 27.0481 7.72461 27.0053C9.74961 28.3044 12.1523 29.0544 14.7398 29.0544C23.1398 29.0544 27.7362 22.0955 27.7362 16.0553C27.7362 15.8571 27.7362 15.6589 27.7228 15.4606C28.6121 14.8097 29.3916 14.0035 30.013 13.0981Z" fill="#0592B8"/>
</g>
<defs>
<clipPath id="clip0_29_1816">
<rect width="24" height="24" fill="white" transform="translate(6.87061 8)"/>
</clipPath>
</defs>
</svg>

<svg xmlns="http://www.w3.org/2000/svg" width="38" height="40" fill="none"><g clip-path="url(#a)"><path fill="#0592B8" d="M30.013 13.098a9.158 9.158 0 0 1-2.63.707 4.557 4.557 0 0 0 2.009-2.518 9.016 9.016 0 0 1-2.899 1.104 4.557 4.557 0 0 0-3.337-1.444 4.566 4.566 0 0 0-4.567 4.57c0 .354.043.707.112 1.047a12.98 12.98 0 0 1-9.417-4.781c-.41.7-.625 1.496-.622 2.306a4.57 4.57 0 0 0 2.036 3.806 4.608 4.608 0 0 1-2.065-.58v.055c0 2.221 1.57 4.061 3.661 4.484a4.838 4.838 0 0 1-1.202.156c-.298 0-.579-.03-.863-.07a4.576 4.576 0 0 0 4.27 3.169 9.154 9.154 0 0 1-5.67 1.952 9.35 9.35 0 0 1-1.104-.056 12.934 12.934 0 0 0 7.015 2.05c8.4 0 12.996-6.96 12.996-13 0-.198 0-.396-.013-.594a9.836 9.836 0 0 0 2.29-2.363Z"/></g><defs><clipPath id="a"><path fill="#fff" d="M6.87 8h24v24h-24z"/></clipPath></defs></svg>
